Badges/Roblox-Styled/Original/link-changelog.svg

<svg width="114" height="32" viewBox="0 0 114 32" fill="none" xmlns="http://www.w3.org/2000/svg">
<g filter="url(#filter0_i_24_189)">
<rect width="114" height="32" rx="4" fill="#335FFF"/>
<path d="M21.5938 16.6387L24.6504 19.6953L19.9531 24.3633C19.8294 24.4805 19.6829 24.5391 19.5137 24.5391H17.375C17.2057 24.5391 17.0592 24.4772 16.9355 24.3535C16.8118 24.2363 16.75 24.0898 16.75 23.9141V21.7461C16.75 21.5703 16.8118 21.4238 16.9355 21.3066L21.5938 16.6387ZM11.125 8.25V10.125C11.125 10.3529 11.1803 10.5645 11.291 10.7598C11.4017 10.9486 11.5514 11.0983 11.7402 11.209C11.9355 11.3197 12.1471 11.375 12.375 11.375H17.375C17.6029 11.375 17.8112 11.3197 18 11.209C18.1953 11.0983 18.3483 10.9486 18.459 10.7598C18.5697 10.5645 18.625 10.3529 18.625 10.125V8.25H18.9375C19.1979 8.25 19.4193 8.34115 19.6016 8.52344C19.7839 8.70573 19.875 8.92708 19.875 9.1875V16.541L16.9941 19.4316C16.3691 19.4772 15.7051 19.5 15.002 19.5C14.0384 19.5 13.1432 19.4609 12.3164 19.3828C11.8346 19.3372 11.4017 19.1745 11.0176 18.8945C10.6595 18.6341 10.3796 18.2988 10.1777 17.8887C9.97591 17.472 9.875 17.0326 9.875 16.5703V9.1875C9.875 8.92708 9.96615 8.70573 10.1484 8.52344C10.3307 8.34115 10.5521 8.25 10.8125 8.25H11.125ZM23.2344 14.9883C23.3581 14.8646 23.5046 14.8027 23.6738 14.8027C23.8496 14.8027 23.9993 14.8613 24.123 14.9785L26.3105 17.166C26.4277 17.2897 26.4863 17.4395 26.4863 17.6152C26.4863 17.7845 26.4245 17.931 26.3008 18.0547L25.5391 18.8164L22.4727 15.75L23.2344 14.9883ZM16.75 7.625C16.9258 7.625 17.0723 7.68685 17.1895 7.81055C17.3132 7.92773 17.375 8.07422 17.375 8.25V9.5C17.3685 9.66927 17.3066 9.81576 17.1895 9.93945C17.0723 10.0632 16.9258 10.125 16.75 10.125H13C12.8242 10.125 12.6745 10.0664 12.5508 9.94922C12.4336 9.82552 12.375 9.67578 12.375 9.5V8.25C12.375 8.07422 12.4336 7.92773 12.5508 7.81055C12.6745 7.68685 12.8242 7.625 13 7.625H16.75Z" fill="white"/>
<path d="M35.927 20.11C33.837 20.11 32.374 18.614 32.374 16.15C32.374 13.686 33.837 12.19 35.927 12.19C37.148 12.19 38.193 12.663 38.842 13.521L37.775 14.577C37.214 13.917 36.642 13.642 35.927 13.642C34.662 13.642 33.892 14.522 33.892 16.15C33.892 17.778 34.662 18.658 35.927 18.658C36.642 18.658 37.214 18.383 37.775 17.723L38.842 18.779C38.193 19.637 37.148 20.11 35.927 20.11ZM41.1594 20H39.7514V12.19H41.1594V15.05L41.3354 15.116C41.6104 14.566 42.1384 14.126 42.9964 14.126C44.2834 14.126 44.9654 14.995 44.9654 16.293V20H43.5574V16.667C43.5574 15.798 43.1394 15.424 42.4024 15.424C41.8194 15.424 41.3574 15.798 41.1594 16.194V20ZM47.8976 20.11C46.9296 20.11 46.0606 19.516 46.0606 18.295C46.0606 17.195 46.8526 16.48 48.4036 16.48H49.7456V16.381C49.7456 15.6 49.2836 15.336 48.6786 15.336C48.0406 15.336 47.5346 15.611 46.9186 16.073L46.2476 15.028C46.9516 14.5 47.7656 14.126 48.7116 14.126C50.1306 14.126 51.1536 14.709 51.1536 16.337V20H49.7456V19.351L49.5696 19.285C49.1736 19.824 48.6566 20.11 47.8976 20.11ZM48.3596 18.9C48.9756 18.9 49.4596 18.559 49.7456 18.152V17.492H48.3816C47.7986 17.492 47.4686 17.734 47.4686 18.196C47.4686 18.625 47.8316 18.9 48.3596 18.9ZM54.0178 20H52.6098V14.236H54.0178V15.05L54.1938 15.116C54.4798 14.555 54.9968 14.126 55.8548 14.126C57.1308 14.126 57.8238 14.995 57.8238 16.293V20H56.4158V16.667C56.4158 15.798 55.9758 15.424 55.2828 15.424C54.7108 15.424 54.2488 15.743 54.0178 16.194V20ZM61.746 22.2C60.547 22.2 59.788 21.771 59.15 21.243L59.975 20.187C60.371 20.561 61.02 20.924 61.746 20.924C62.582 20.924 63.132 20.418 63.132 19.395V18.966L62.956 18.9C62.692 19.494 62.164 19.89 61.372 19.89C59.832 19.89 58.919 18.669 58.919 17.008C58.919 15.138 60.162 14.126 61.46 14.126C62.142 14.126 62.593 14.368 62.956 14.841L63.132 14.775V14.236H64.54V19.12C64.54 20.968 63.649 22.2 61.746 22.2ZM61.735 18.592C62.373 18.592 62.868 18.284 63.132 17.822V16.095C62.78 15.666 62.296 15.424 61.746 15.424C61.031 15.424 60.349 15.996 60.349 17.008C60.349 18.053 60.877 18.592 61.735 18.592ZM68.6126 20.11C66.8416 20.11 65.6866 18.911 65.6866 17.129C65.6866 15.347 66.8416 14.126 68.4916 14.126C70.2736 14.126 71.1646 15.347 71.1646 17.052V17.547H67.1056C67.2266 18.449 67.7986 18.834 68.6126 18.834C69.2066 18.834 69.6576 18.647 70.1086 18.273L70.9556 19.285C70.3396 19.857 69.4596 20.11 68.6126 20.11ZM68.4916 15.314C67.7876 15.314 67.3256 15.677 67.1496 16.403H69.7676C69.6796 15.71 69.2176 15.314 68.4916 15.314ZM73.676 20H72.268V12.19H73.676V20ZM77.6664 20.11C75.9174 20.11 74.8174 18.9 74.8174 17.118C74.8174 15.336 75.9174 14.126 77.6664 14.126C79.4154 14.126 80.5154 15.336 80.5154 17.118C80.5154 18.9 79.4154 20.11 77.6664 20.11ZM77.6774 18.812C78.5134 18.812 79.0854 18.196 79.0854 17.118C79.0854 16.04 78.5134 15.424 77.6774 15.424C76.8414 15.424 76.2474 16.04 76.2474 17.118C76.2474 18.196 76.8414 18.812 77.6774 18.812ZM84.1757 22.2C82.9767 22.2 82.2177 21.771 81.5797 21.243L82.4047 20.187C82.8007 20.561 83.4497 20.924 84.1757 20.924C85.0117 20.924 85.5617 20.418 85.5617 19.395V18.966L85.3857 18.9C85.1217 19.494 84.5937 19.89 83.8017 19.89C82.2617 19.89 81.3487 18.669 81.3487 17.008C81.3487 15.138 82.5917 14.126 83.8897 14.126C84.5717 14.126 85.0227 14.368 85.3857 14.841L85.5617 14.775V14.236H86.9697V19.12C86.9697 20.968 86.0787 22.2 84.1757 22.2ZM84.1647 18.592C84.8027 18.592 85.2977 18.284 85.5617 17.822V16.095C85.2097 15.666 84.7257 15.424 84.1757 15.424C83.4607 15.424 82.7787 15.996 82.7787 17.008C82.7787 18.053 83.3067 18.592 84.1647 18.592Z" fill="white"/>
<path d="M97.625 11.1875C97.7812 11.1875 97.9141 11.2422 98.0234 11.3516C98.1328 11.4609 98.1875 11.5938 98.1875 11.75C98.1875 11.9062 98.1328 12.0391 98.0234 12.1484C97.9141 12.2578 97.7812 12.3125 97.625 12.3125H94.0625V20.1875H101.938V16.625C101.938 16.4688 101.992 16.3359 102.102 16.2266C102.211 16.1172 102.344 16.0625 102.5 16.0625C102.656 16.0625 102.789 16.1172 102.898 16.2266C103.008 16.3359 103.062 16.4688 103.062 16.625V20.375C103.062 20.543 103.02 20.6992 102.934 20.8438C102.852 20.9883 102.738 21.1016 102.594 21.1836C102.449 21.2695 102.293 21.3125 102.125 21.3125H93.875C93.707 21.3125 93.5508 21.2695 93.4062 21.1836C93.2617 21.1016 93.1465 20.9883 93.0605 20.8438C92.9785 20.6992 92.9375 20.543 92.9375 20.375V12.125C92.9375 11.957 92.9785 11.8008 93.0605 11.6562C93.1465 11.5117 93.2617 11.3984 93.4062 11.3164C93.5508 11.2305 93.707 11.1875 93.875 11.1875H97.625ZM102.5 11.1875C102.656 11.1875 102.789 11.2422 102.898 11.3516C103.008 11.4609 103.062 11.5938 103.062 11.75V14C103.062 14.1562 103.008 14.2891 102.898 14.3984C102.789 14.5078 102.656 14.5625 102.5 14.5625C102.344 14.5625 102.211 14.5078 102.102 14.3984C101.992 14.2891 101.938 14.1562 101.938 14V13.1094L98.3984 16.6484C98.2891 16.7578 98.1562 16.8125 98 16.8125C97.8438 16.8125 97.7109 16.7578 97.6016 16.6484C97.4922 16.5391 97.4375 16.4062 97.4375 16.25C97.4375 16.0938 97.4922 15.9609 97.6016 15.8516L101.141 12.3125H100.25C100.094 12.3125 99.9609 12.2578 99.8516 12.1484C99.7422 12.0391 99.6875 11.9062 99.6875 11.75C99.6875 11.5938 99.7422 11.4609 99.8516 11.3516C99.9609 11.2422 100.094 11.1875 100.25 11.1875H102.5Z" fill="white"/>
</g>
<defs>
<filter id="filter0_i_24_189" x="0" y="-2" width="114" height="34" filterUnits="userSpaceOnUse" color-interpolation-filters="sRGB">
<feFlood flood-opacity="0" result="BackgroundImageFix"/>
<feBlend mode="normal" in="SourceGraphic" in2="BackgroundImageFix" result="shape"/>
<feColorMatrix in="SourceAlpha" type="matrix" values="0 0 0 0 0 0 0 0 0 0 0 0 0 0 0 0 0 0 127 0" result="hardAlpha"/>
<feOffset dy="-2"/>
<feGaussianBlur stdDeviation="1.65"/>
<feComposite in2="hardAlpha" operator="arithmetic" k2="-1" k3="1"/>
<feColorMatrix type="matrix" values="0 0 0 0 1 0 0 0 0 1 0 0 0 0 1 0 0 0 0.11 0"/>
<feBlend mode="normal" in2="shape" result="effect1_innerShadow_24_189"/>
</filter>
</defs>
</svg>

<svg xmlns="http://www.w3.org/2000/svg" width="114" height="32" fill="none">
  <g filter="url(#a)">
    <rect width="114" height="32" fill="#335fff" rx="4"/>
    <path fill="#fff" d="m21.594 16.639 3.056 3.056-4.697 4.668a.62.62 0 0 1-.44.176h-2.138a.6.6 0 0 1-.44-.186.58.58 0 0 1-.185-.439v-2.168a.58.58 0 0 1 .186-.44zM11.125 8.25v1.875q0 .342.166.635a1.24 1.24 0 0 0 1.084.615h5q.342 0 .625-.166a1.22 1.22 0 0 0 .625-1.084V8.25h.313q.39 0 .664.273a.9.9 0 0 1 .273.665v7.353l-2.88 2.89q-.939.069-1.993.069-1.446 0-2.686-.117a2.6 2.6 0 0 1-1.298-.488 2.7 2.7 0 0 1-.84-1.006 3 3 0 0 1-.303-1.319V9.188q0-.39.273-.665a.9.9 0 0 1 .665-.273zm12.11 6.738a.6.6 0 0 1 .439-.185.63.63 0 0 1 .449.175l2.188 2.188a.63.63 0 0 1 .175.45.6.6 0 0 1-.185.439l-.762.761-3.066-3.066zM16.75 7.625a.58.58 0 0 1 .44.186.58.58 0 0 1 .185.439V9.5a.66.66 0 0 1-.186.44.58.58 0 0 1-.439.185H13a.63.63 0 0 1-.45-.176.63.63 0 0 1-.175-.449V8.25q0-.263.176-.44A.6.6 0 0 1 13 7.626zM35.927 20.11c-2.09 0-3.553-1.496-3.553-3.96s1.463-3.96 3.553-3.96c1.221 0 2.266.473 2.915 1.331l-1.067 1.056c-.561-.66-1.133-.935-1.848-.935-1.265 0-2.035.88-2.035 2.508s.77 2.508 2.035 2.508c.715 0 1.287-.275 1.848-.935l1.067 1.056c-.649.858-1.694 1.331-2.915 1.331m5.232-.11h-1.408v-7.81h1.408v2.86l.176.066c.275-.55.803-.99 1.661-.99 1.287 0 1.97.869 1.97 2.167V20h-1.409v-3.333c0-.869-.418-1.243-1.155-1.243-.583 0-1.045.374-1.243.77zm6.739.11c-.968 0-1.837-.594-1.837-1.815 0-1.1.792-1.815 2.343-1.815h1.342v-.099c0-.781-.462-1.045-1.067-1.045-.638 0-1.144.275-1.76.737l-.671-1.045c.704-.528 1.518-.902 2.464-.902 1.419 0 2.442.583 2.442 2.211V20h-1.408v-.649l-.176-.066c-.396.539-.913.825-1.672.825m.462-1.21c.616 0 1.1-.341 1.386-.748v-.66h-1.364c-.583 0-.913.242-.913.704 0 .429.363.704.89.704m5.658 1.1H52.61v-5.764h1.408v.814l.176.066c.286-.561.803-.99 1.66-.99 1.277 0 1.97.869 1.97 2.167V20h-1.408v-3.333c0-.869-.44-1.243-1.133-1.243-.572 0-1.034.319-1.265.77zm7.728 2.2c-1.199 0-1.958-.429-2.596-.957l.825-1.056c.396.374 1.045.737 1.771.737.836 0 1.386-.506 1.386-1.529v-.429l-.176-.066c-.264.594-.792.99-1.584.99-1.54 0-2.453-1.221-2.453-2.882 0-1.87 1.243-2.882 2.541-2.882.682 0 1.133.242 1.496.715l.176-.066v-.539h1.408v4.884c0 1.848-.891 3.08-2.794 3.08m-.011-3.608c.638 0 1.133-.308 1.397-.77v-1.727a1.76 1.76 0 0 0-1.386-.671c-.715 0-1.397.572-1.397 1.584 0 1.045.528 1.584 1.386 1.584m6.878 1.518c-1.771 0-2.926-1.199-2.926-2.981s1.155-3.003 2.805-3.003c1.782 0 2.673 1.221 2.673 2.926v.495h-4.06c.122.902.694 1.287 1.508 1.287.594 0 1.045-.187 1.496-.561l.847 1.012c-.616.572-1.496.825-2.343.825m-.121-4.796c-.704 0-1.166.363-1.342 1.089h2.618c-.088-.693-.55-1.089-1.276-1.089M73.676 20h-1.408v-7.81h1.408zm3.99.11c-1.749 0-2.849-1.21-2.849-2.992s1.1-2.992 2.85-2.992c1.748 0 2.848 1.21 2.848 2.992s-1.1 2.992-2.849 2.992m.011-1.298c.836 0 1.408-.616 1.408-1.694s-.572-1.694-1.408-1.694-1.43.616-1.43 1.694.594 1.694 1.43 1.694m6.499 3.388c-1.2 0-1.958-.429-2.596-.957l.825-1.056c.396.374 1.045.737 1.77.737.837 0 1.387-.506 1.387-1.529v-.429l-.176-.066c-.264.594-.792.99-1.584.99-1.54 0-2.453-1.221-2.453-2.882 0-1.87 1.243-2.882 2.54-2.882.683 0 1.134.242 1.497.715l.176-.066v-.539h1.408v4.884c0 1.848-.891 3.08-2.794 3.08m-.011-3.608c.638 0 1.133-.308 1.397-.77v-1.727a1.76 1.76 0 0 0-1.386-.671c-.715 0-1.397.572-1.397 1.584 0 1.045.528 1.584 1.386 1.584m13.46-7.404q.235 0 .398.164.165.164.165.398t-.165.398a.54.54 0 0 1-.398.165h-3.562v7.874h7.875v-3.562a.54.54 0 0 1 .164-.398.54.54 0 0 1 .398-.165q.234 0 .398.165a.54.54 0 0 1 .164.398v3.75a.9.9 0 0 1-.128.469.9.9 0 0 1-.34.34.9.9 0 0 1-.469.128h-8.25a.9.9 0 0 1-.469-.128.93.93 0 0 1-.346-.34.93.93 0 0 1-.123-.469v-8.25q0-.252.124-.469a.93.93 0 0 1 .345-.34.9.9 0 0 1 .469-.129zm4.875 0q.234 0 .398.164a.54.54 0 0 1 .164.398V14a.54.54 0 0 1-.164.398.54.54 0 0 1-.398.165.54.54 0 0 1-.398-.165.54.54 0 0 1-.164-.398v-.89l-3.54 3.538a.54.54 0 0 1-.398.165.54.54 0 0 1-.398-.165.54.54 0 0 1-.165-.398q0-.235.165-.398l3.539-3.54h-.891a.54.54 0 0 1-.398-.164.54.54 0 0 1-.165-.398q0-.235.165-.398a.54.54 0 0 1 .398-.165z"/>
  </g>
  <defs>
    <filter id="a" width="114" height="34" x="0" y="-2" color-interpolation-filters="sRGB" filterUnits="userSpaceOnUse">
      <feFlood flood-opacity="0" result="BackgroundImageFix"/>
      <feBlend in="SourceGraphic" in2="BackgroundImageFix" result="shape"/>
      <feColorMatrix in="SourceAlpha" result="hardAlpha" values="0 0 0 0 0 0 0 0 0 0 0 0 0 0 0 0 0 0 127 0"/>
      <feOffset dy="-2"/>
      <feGaussianBlur stdDeviation="1.65"/>
      <feComposite in2="hardAlpha" k2="-1" k3="1" operator="arithmetic"/>
      <feColorMatrix values="0 0 0 0 1 0 0 0 0 1 0 0 0 0 1 0 0 0 0.11 0"/>
      <feBlend in2="shape" result="effect1_innerShadow_24_189"/>
    </filter>
  </defs>
</svg>
